icon-svg/mosquitto.svg

<svg xmlns="http://www.w3.org/2000/svg" data-name="Livello 1" viewBox="0 0 24 24"><path fill="#44739e" d="M20.14 3.85c-.12 0-.23 0-.37.2-.82.89-1.63 1.8-2.44 2.65a.38.38 0 0 0 0 .33 8.39 8.39 0 0 1 2 3.48 9.57 9.57 0 0 1 .37 2.54 9.05 9.05 0 0 1-.5 3.68c-.17.43-.34.86-.54 1.34l-1-1a10.33 10.33 0 0 0 .79-4.85C18 10.63 17.56 9 16.25 7.9l-2.75 2.84A3.34 3.34 0 0 1 14.7 13a3.33 3.33 0 0 1-1.3 3.19.76.76 0 0 0-.49.77v.92a3.82 3.82 0 0 0 2.78-2.77 5.13 5.13 0 0 0-.43-4.25l.84-.86a3 3 0 0 1 .3.52 8.88 8.88 0 0 1 .7 2.34 6.62 6.62 0 0 1-.68 3.64c-.12.26-.32.47-.46.72a.42.42 0 0 0 0 .31c.4.47.77.84 1.21 1.32s1 .93 1.44 1.41c.2.21.32.11.44-.06a10.4 10.4 0 0 0 .77-1.2 14.7 14.7 0 0 0 .76-2.07 12.6 12.6 0 0 0 .49-3.44 6.53 6.53 0 0 0-.2-1.7c-.17-.6-.16-1.25-.35-1.83a10.15 10.15 0 0 0-1.18-2.55c-.31-.41-.28-.49.07-.85l.66-.61c.43.8.9 1.52 1.27 2.37a9.27 9.27 0 0 1 .66 2 15 15 0 0 1 .34 3.89 11 11 0 0 1-.71 3.71c-.21.52-.4 1-.64 1.53a13.84 13.84 0 0 1-1 1.75c-.21.25-.21.29 0 .5s.41.41.63.61a.22.22 0 0 0 .21 0 1.59 1.59 0 0 0 .32-.36c.41-.74.87-1.47 1.24-2.26a12.46 12.46 0 0 0 .73-2.13 12.2 12.2 0 0 0 .52-3.16 18.3 18.3 0 0 0-.19-3.47 15.62 15.62 0 0 0-2.93-6.79.69.69 0 0 0-.38-.29M3.9 3.91a.47.47 0 0 0-.36.26c-.12.19-.27.35-.39.54a24.4 24.4 0 0 0-1.43 2.34 13.9 13.9 0 0 0-.83 2.4 11.74 11.74 0 0 0-.52 3.05A15.2 15.2 0 0 0 .56 16a12.58 12.58 0 0 0 .66 2.55c.26.54.39 1.16.68 1.7a23.3 23.3 0 0 0 1.27 2c0 .08.21.08.21.08a5.6 5.6 0 0 0 .62-.65.52.52 0 0 0 .1-.43c-.25-.44-.55-.85-.81-1.29A12.12 12.12 0 0 1 2 16.69a12.17 12.17 0 0 1-.3-3.8 12.2 12.2 0 0 1 .55-3.33 18.1 18.1 0 0 1 1-2.48c.2-.41.45-.78.69-1.17.23.21.43.37.61.55.36.35.39.51.06.92a8.45 8.45 0 0 0-1.07 2.38A9.2 9.2 0 0 0 3 12a9.79 9.79 0 0 0 .1 3.37A16.5 16.5 0 0 0 3.82 18a15.5 15.5 0 0 0 1 1.89 1.65 1.65 0 0 0 .27.38.26.26 0 0 0 .27 0c.52-.49 1.11-1.06 1.52-1.48s.79-.85 1.18-1.3a.44.44 0 0 0 0-.32 3.6 3.6 0 0 1-.84-1.69A6.08 6.08 0 0 1 7 12.21a7.34 7.34 0 0 1 1-2.29l.8.85a11.6 11.6 0 0 0-.55 1.7 10.1 10.1 0 0 0-.07 1.46 4.31 4.31 0 0 0 .38 1.61 1.5 1.5 0 0 0 .24.53 4 4 0 0 0 2.16 1.76c.21.05.27 0 .32-.11a2.41 2.41 0 0 1-.07-.71.72.72 0 0 0-.41-.77 2.91 2.91 0 0 1-1.32-2.49 3.23 3.23 0 0 1 1-2.77.36.36 0 0 0 0-.32 8.7 8.7 0 0 0-.67-.66L8.38 8.44c-.52-.56-.65-.59-1.07 0A6.74 6.74 0 0 0 6 11.14a12.63 12.63 0 0 0-.37 2.35 8 8 0 0 0 .3 1.93c.16.59.32 1.14.49 1.69l-1 1c-.27-.73-.57-1.36-.75-2a10.2 10.2 0 0 1-.29-2A10.07 10.07 0 0 1 4.94 10a8.93 8.93 0 0 1 1.78-2.92.34.34 0 0 0 0-.31c-.44-.48-.94-1-1.33-1.4s-.76-.83-1.13-1.26a.44.44 0 0 0-.36-.2m8.25 7.9A1.52 1.52 0 0 0 10.59 13a1.87 1.87 0 0 0 .41 1.8 1.53 1.53 0 0 1 .46.59 4.4 4.4 0 0 1 .16 1.08c.08 1.44.15 2.89.22 4.33a19.3 19.3 0 0 1 .06 2.2.81.81 0 0 0 .17.28l.08-.11c0-.51.1-1 .1-1.54.08-1.62.14-3.23.23-4.86 0-.46.09-.93.15-1.4a.47.47 0 0 1 .12-.23c.18-.18.37-.35.54-.55a2.31 2.31 0 0 0 .08-1.94 1.65 1.65 0 0 0-1.22-.84" class="cls-1" data-name="Colore riempimento 1"/></svg>

<?xml version="1.0" encoding="UTF-8" standalone="no"?>
<svg
   id="Livello_1"
   data-name="Livello 1"
   viewBox="0 0 24 24"
   version="1.1"
   width="24"
   height="24"
   xmlns="http://www.w3.org/2000/svg"
   xmlns:svg="http://www.w3.org/2000/svg">
  <path id="Colore_riempimento_1" fill="#44739e" data-name="Colore riempimento 1" class="cls-1"
     d="m 20.14,3.85 c -0.12,0 -0.23,0 -0.37,0.2 -0.82,0.89 -1.63,1.8 -2.44,2.65 a 0.38,0.38 0 0 0 0,0.33 8.39,8.39 0 0 1 2,3.48 9.57,9.57 0 0 1 0.37,2.54 9.05,9.05 0 0 1 -0.5,3.68 c -0.17,0.43 -0.34,0.86 -0.54,1.34 l -1,-1 a 10.33,10.33 0 0 0 0.79,-4.85 C 18,10.63 17.56,9 16.25,7.9 l -2.75,2.84 a 3.34,3.34 0 0 1 1.2,2.26 3.33,3.33 0 0 1 -1.3,3.19 0.76,0.76 0 0 0 -0.49,0.77 v 0.92 a 3.82,3.82 0 0 0 2.78,-2.77 5.13,5.13 0 0 0 -0.43,-4.25 L 16.1,10 a 3,3 0 0 1 0.3,0.52 8.88,8.88 0 0 1 0.7,2.34 6.62,6.62 0 0 1 -0.68,3.64 c -0.12,0.26 -0.32,0.47 -0.46,0.72 a 0.42,0.42 0 0 0 0,0.31 c 0.4,0.47 0.77,0.84 1.21,1.32 0.44,0.48 1,0.93 1.44,1.41 0.2,0.21 0.32,0.11 0.44,-0.06 a 10.41,10.41 0 0 0 0.77,-1.2 14.73,14.73 0 0 0 0.76,-2.07 12.6,12.6 0 0 0 0.49,-3.44 6.53,6.53 0 0 0 -0.2,-1.7 C 20.7,11.19 20.71,10.54 20.52,9.96 A 10.15,10.15 0 0 0 19.34,7.41 C 19.03,7 19.06,6.92 19.41,6.56 l 0.66,-0.61 c 0.43,0.8 0.9,1.52 1.27,2.37 a 9.27,9.27 0 0 1 0.66,2 15,15 0 0 1 0.34,3.89 11,11 0 0 1 -0.71,3.71 c -0.21,0.52 -0.4,1 -0.64,1.53 a 13.84,13.84 0 0 1 -1,1.75 c -0.21,0.25 -0.21,0.29 0,0.5 0.21,0.21 0.41,0.41 0.63,0.61 a 0.22,0.22 0 0 0 0.21,0 1.59,1.59 0 0 0 0.32,-0.36 c 0.41,-0.74 0.87,-1.47 1.24,-2.26 A 12.46,12.46 0 0 0 23.12,17.56 12.21,12.21 0 0 0 23.64,14.4 18.32,18.32 0 0 0 23.45,10.93 15.62,15.62 0 0 0 20.52,4.14 0.69,0.69 0 0 0 20.14,3.85 Z M 3.9,3.91 A 0.47,0.47 0 0 0 3.54,4.17 C 3.42,4.36 3.27,4.52 3.15,4.71 A 24.39,24.39 0 0 0 1.72,7.05 13.91,13.91 0 0 0 0.89,9.45 11.74,11.74 0 0 0 0.37,12.5 15.21,15.21 0 0 0 0.56,16 12.58,12.58 0 0 0 1.22,18.55 c 0.26,0.54 0.39,1.16 0.68,1.7 a 23.25,23.25 0 0 0 1.27,2 c 0,0.08 0.21,0.08 0.21,0.08 A 5.61,5.61 0 0 0 4,21.68 0.52,0.52 0 0 0 4.1,21.25 C 3.85,20.81 3.55,20.4 3.29,19.96 A 12.12,12.12 0 0 1 2,16.69 12.17,12.17 0 0 1 1.7,12.89 12.21,12.21 0 0 1 2.25,9.56 18.11,18.11 0 0 1 3.25,7.08 C 3.45,6.67 3.7,6.3 3.94,5.91 4.17,6.12 4.37,6.28 4.55,6.46 4.91,6.81 4.94,6.97 4.61,7.38 A 8.45,8.45 0 0 0 3.54,9.76 9.21,9.21 0 0 0 3,12 9.79,9.79 0 0 0 3.1,15.37 16.52,16.52 0 0 0 3.82,18 a 15.53,15.53 0 0 0 1,1.89 1.65,1.65 0 0 0 0.27,0.38 0.26,0.26 0 0 0 0.27,0 c 0.52,-0.49 1.11,-1.06 1.52,-1.48 0.41,-0.42 0.79,-0.85 1.18,-1.3 a 0.44,0.44 0 0 0 0,-0.32 A 3.6,3.6 0 0 1 7.22,15.48 6.08,6.08 0 0 1 7,12.21 7.34,7.34 0 0 1 8,9.92 l 0.8,0.85 a 11.61,11.61 0 0 0 -0.55,1.7 10.13,10.13 0 0 0 -0.07,1.46 4.31,4.31 0 0 0 0.38,1.61 1.5,1.5 0 0 0 0.24,0.53 4,4 0 0 0 2.16,1.76 c 0.21,0.05 0.27,0 0.32,-0.11 a 2.41,2.41 0 0 1 -0.07,-0.71 0.72,0.72 0 0 0 -0.41,-0.77 2.91,2.91 0 0 1 -1.32,-2.49 3.23,3.23 0 0 1 1,-2.77 0.36,0.36 0 0 0 0,-0.32 A 8.72,8.72 0 0 0 9.81,10 L 8.38,8.44 C 7.86,7.88 7.73,7.85 7.31,8.44 a 6.74,6.74 0 0 0 -1.31,2.7 12.63,12.63 0 0 0 -0.37,2.35 8,8 0 0 0 0.3,1.93 c 0.16,0.59 0.32,1.14 0.49,1.69 l -1,1 C 5.15,17.38 4.85,16.75 4.67,16.11 A 10.19,10.19 0 0 1 4.38,14.11 10.07,10.07 0 0 1 4.94,10 8.93,8.93 0 0 1 6.72,7.08 0.34,0.34 0 0 0 6.72,6.77 C 6.28,6.29 5.78,5.77 5.39,5.37 5,4.97 4.63,4.54 4.26,4.11 A 0.44,0.44 0 0 0 3.9,3.91 Z m 8.25,7.9 A 1.52,1.52 0 0 0 10.59,13 1.87,1.87 0 0 0 11,14.8 a 1.53,1.53 0 0 1 0.46,0.59 4.41,4.41 0 0 1 0.16,1.08 c 0.08,1.44 0.15,2.89 0.22,4.33 a 19.32,19.32 0 0 1 0.06,2.2 0.81,0.81 0 0 0 0.17,0.28 l 0.08,-0.11 c 0,-0.51 0.1,-1 0.1,-1.54 0.08,-1.62 0.14,-3.23 0.23,-4.86 0,-0.46 0.09,-0.93 0.15,-1.4 a 0.47,0.47 0 0 1 0.12,-0.23 c 0.18,-0.18 0.37,-0.35 0.54,-0.55 a 2.31,2.31 0 0 0 0.08,-1.94 1.65,1.65 0 0 0 -1.22,-0.84 z" />
</svg>
